X:1
T:Say! Will You Meet Me There?
T:Say! Will You Meet Me There?
T:William James Kirkpatrick
T:May Maurice, 1897
T:Public Domain Courtesy of the Cyber Hymnal™
T:Public Domain Courtesy of the Cyber Hymnal™
C:William James Kirkpatrick
Z:Public Domain
Z:Courtesy of the Cyber Hymnal™
%%score ( 1 2 ) ( 3 4 )
L:1/8
Q:1/4=100
M:4/4
K:F
V:1 treble 
V:2 treble 
V:3 bass 
V:4 bass 
V:1
 F>[FG] | [FA]2 [FA]2 [FA]2 F>[FG] | [FA]2 [FA]2 [FA]2 [FA]>[GB] | [Ac]2 [Fc]2 [Fc]2 [Fd]>[Fc] | %4
w: 1.~When my|wea- ry feet reach the|shin- ing goal, And the|Mas- ter’s voice greets my|
w: 2.~When I|sweet- ly rest on that|peace- ful shore, Where the|blight of sin shall be|
w: 3.~When I|stand at last with the|white- robed throng, To a-|dore my king, and His|
 [FA]2 F2 !fermata![EG]2 [FA]>[GB] | [Ac]2 [Ac]2 [Ac]2 [FA]>[FA] | [FB]2 [Fc]2 [Fd]2 [Fd]2 | %7
w: rap- tured soul; Where the|waves of joy shall a-|round me roll, O|
w: felt no more; When I|find the loved ones who’ve|gone be- fore, O|
w: praise pro- long; When my|voice shall join in the|glad, new song, O|
 [Fc]2 F>[FG] [FA]2 [EG]2 | F6 z2 ||"^Refrain" [Ac]6 [FA]>[GB] | [Fc]2 [Ec]2 [Fc]4 | %11
w: say, will you meet me|there?|Say, will you|meet me there?|
w: say, will you meet me|there?|||
w: say, will you meet me|there?|||
 [EB]6 [EG]>[FA] | [EB]2 [EB]2 !fermata![FA]2 [FA]>[GB] | [Fc]2 [Bc]2 [Ac]2 [FA]>[FA] | %14
w: Say, will you|meet me there? In the|home a- bove, in the|
w: |||
w: |||
 [FB]2 [Fc]2 !fermata![Fd]2 !fermata![Fd]2 | [Fc]2 F>[FG] [FA]2 [EG]2 | [CF]6 |] %17
w: land of love, O|say, will you meet me|there?|
w: |||
w: |||
V:2
 F3/2 x/ | x6 F3/2 x/ | x8 | x8 | x2 F2 x4 | x8 | x8 | x2 F3/2 x9/2 | F6 x2 || x8 | x8 | x8 | x8 | %13
 x8 | x8 | x2 F3/2 x9/2 | x6 |] %17
V:3
 [F,A,]>[F,B,] | [F,C]2 [F,C]2 [F,C]2 [F,A,]>[F,B,] | [F,C]2 [F,C]2 [F,C]2 [F,C]>[F,C] | %3
w: ~ ~|~ ~ ~ ~ ~|~ ~ ~ ~ ~|
 [F,C]2 [F,A,]2 [F,A,]2 [F,B,]>[F,A,] | [F,C]2 [D,=B,]2 !fermata![C,C]2 [F,C]>[F,C] | %5
w: ~ ~ ~ ~ ~|~ ~ ~ ~ ~|
 [F,C]2 [F,F]2 [F,F]2 [_E,C]>[E,C] | [D,B,]2 [C,A,]2 !fermata![B,,B,]2 [B,,B,]2 | %7
w: ~ ~ ~ ~ ~|~ ~ ~ ~|
 [A,,C]2 [B,,D]>[B,,D] [C,C]2 [C,B,]2 | [F,A,]6 z2 || [F,C]2 [C,F]2 [F,F]2 C>[B,C] | %10
w: ~ ~ ~ ~ ~|~|~ O say, ~ ~|
 [A,C]2 [G,B,]2 [F,A,]4 | [G,C]2 [C,C]2 [G,C]2 [B,C]>[A,C] | %12
w: ~ ~ ~|~ O say, * *|
 [G,C]2 [C,C]2 !fermata![F,C]2 [F,C]>[G,C] | [A,C]2 [G,E]2 [F,F]2 [_E,C]>[E,C] | %14
w: ||
 [D,B,]2 [C,A,]2 !fermata![B,,B,]2 !fermata![B,,B,]2 | [A,,C]2 [B,,D]>[B,,D] [C,C]2 [C,B,]2 | %16
w: ||
 [F,,F,A,]6 |] %17
w: |
V:4
 x2 | x8 | x8 | x8 | x8 | x8 | x8 | x8 | x8 || x6 C3/2 x/ | x8 | x8 | x8 | x8 | x8 | x8 | x6 |] %17

